;FLAVOR:Marlin
;TIME:3093
;Filament used: 6.35522m
;Layer height: 0.3
;MINX:50.019
;MINY:76.734
;MINZ:0.5
;MAXX:179.092
;MAXY:195.23
;MAXZ:4.1
;TARGET_MACHINE.NAME:Creality Ender-3
;Generated with Cura_SteamEngine 5.8.1
M140 S85
M105
M190 S85
M104 S240
M105
M109 S240
M82 ;absolute extrusion mode
; Ender 3 Custom Start G-code
G92 E0 ; Reset Extruder
G28 ; Home all axes
G1 Z2.0 F3000 ; Move Z Axis up little to prevent scratching of Heat Bed
G1 X0.1 Y20 Z0.3 F5000.0 ; Move to start position
G1 X0.1 Y200.0 Z0.3 F1500.0 E15 ; Draw the first line
G1 X0.4 Y200.0 Z0.3 F5000.0 ; Move to side a little
G1 X0.4 Y20 Z0.3 F1500.0 E30 ; Draw the second line
G92 E0 ; Reset Extruder
G1 Z2.0 F3000 ; Move Z Axis up little to prevent scratching of Heat Bed
G1 X5 Y20 Z0.3 F5000.0 ; Move over to prevent blob squish
G92 E0
G92 E0
G1 F2700 E-4
;LAYER_COUNT:13
;LAYER:0
M107
;MESH:??????????.stl(2)
G0 F3600 X118.244 Y82.335 Z0.5
;TYPE:WALL-INNER
G1 F2700 E0
G1 F1200 X122.064 Y82.671 E0.63772
G1 X122.405 Y82.731 E0.6953
G1 X126.278 Y83.767 E1.36203
G1 X130.076 Y85.538 E2.05893
G1 X133.501 Y87.939 E2.75452
G1 X136.459 Y90.897 E3.4502
G1 X138.863 Y94.327 E4.14676
G1 X140.63 Y98.116 E4.84203
G1 X141.668 Y101.994 E5.50964
G1 X141.729 Y102.338 E5.56774
G1 X142.076 Y106.33 E6.23412
G1 X141.716 Y110.487 E6.92802
G1 X140.632 Y114.541 E7.62589
G1 X138.862 Y118.336 E8.32227
G1 X136.461 Y121.761 E9.01786
G1 X133.503 Y124.719 E9.71354
G1 X130.073 Y127.123 E10.4101
G1 X126.278 Y128.893 E11.10648
G1 X122.405 Y129.928 E11.77316
G1 X122.062 Y129.989 E11.8311
G1 X118.242 Y130.32 E12.46875
G1 X117.894 Y130.321 E12.52662
G1 X113.902 Y129.974 E13.193
G1 X109.858 Y128.892 E13.88917
G1 X106.067 Y127.123 E14.58488
G1 X102.639 Y124.721 E15.28098
G1 X99.677 Y121.759 E15.97759
G1 X97.275 Y118.327 E16.67424
G1 X95.507 Y114.537 E17.36972
G1 X94.426 Y110.498 E18.06505
G1 X94.06 Y106.32 E18.76252
G1 X94.427 Y102.161 E19.45685
G1 X95.508 Y98.118 E20.15282
G1 X97.277 Y94.327 E20.84853
G1 X99.679 Y90.899 E21.54463
G1 X102.64 Y87.938 E22.24101
G1 X106.067 Y85.537 E22.93688
G1 X109.863 Y83.767 E23.63341
G1 X113.901 Y82.686 E24.32857
G1 X117.892 Y82.335 E24.99484
G1 X118.244 Y82.335 E25.05338
G1 F2700 E21.05338
G0 F3600 X122.176 Y83.045
G0 X126.158 Y84.112
G0 X129.894 Y85.854
G0 X133.269 Y88.218
G0 X136.184 Y91.133
G0 X138.549 Y94.509
G0 X140.29 Y98.245
G0 X141.358 Y102.226
G0 X141.717 Y106.331
G0 X141.358 Y110.437
G0 X140.29 Y114.418
G0 X138.549 Y118.153
G0 X136.184 Y121.531
G0 X133.269 Y124.444
G0 X129.894 Y126.809
G0 X126.158 Y128.551
G0 X122.176 Y129.618
G0 X118.024 Y130.032
G0 X118.068 Y129.528
G1 F2700 E25.05338
G1 F1200 X114.043 Y129.178 E25.72527
G1 X110.133 Y128.137 E26.39815
G1 X106.468 Y126.422 E27.07107
G1 X103.161 Y124.104 E27.74268
G1 X100.296 Y121.239 E28.41648
G1 X97.978 Y117.932 E29.08808
G1 X96.268 Y114.267 E29.76065
G1 X95.217 Y110.36 E30.43349
G1 X94.863 Y106.327 E31.10676
G1 X95.222 Y102.303 E31.77861
G1 X96.263 Y98.393 E32.4515
G1 X97.978 Y94.728 E33.12442
G1 X100.296 Y91.421 E33.79602
G1 X103.161 Y88.556 E34.46982
G1 X106.468 Y86.238 E35.14143
G1 X110.133 Y84.528 E35.814
G1 X114.04 Y83.477 E36.48683
G1 X118.068 Y83.123 E37.15927
G1 X122.1 Y83.477 E37.83238
G1 X126.006 Y84.527 E38.50501
G1 X129.673 Y86.238 E39.17795
G1 X132.979 Y88.556 E39.84941
G1 X135.844 Y91.421 E40.52322
G1 X138.162 Y94.728 E41.19482
G1 X139.872 Y98.393 E41.86739
G1 X140.923 Y102.301 E42.54039
G1 X141.268 Y106.328 E43.21253
G1 X140.924 Y110.354 E43.8845
G1 X139.872 Y114.267 E44.55834
G1 X138.162 Y117.932 E45.23091
G1 X135.844 Y121.239 E45.90251
G1 X132.979 Y124.104 E46.57632
G1 X129.673 Y126.422 E47.24778
G1 X126.006 Y128.133 E47.92072
G1 X122.099 Y129.183 E48.59351
G1 X118.068 Y129.528 E49.26632
G1 F2700 E45.26632
G0 F3600 X118.024 Y130.032
G0 X122.176 Y129.618
G0 X126.158 Y128.551
G0 X129.894 Y126.809
G0 X133.269 Y124.444
G0 X136.184 Y121.531
G0 X138.549 Y118.153
G0 X140.29 Y114.418
G0 X141.358 Y110.437
G0 X141.717 Y106.331
G0 X141.358 Y102.226
G0 X140.29 Y98.245
G0 X136.875 Y90.826
G0 X139.488 Y88.998
G0 X139.517 Y88.343
G1 F2700 E49.26632
G1 F1200 X136.057 Y84.883 E50.08006
G1 X132.076 Y82.095 E50.88831
G1 X127.64 Y80.027 E51.70225
G1 X122.927 Y78.762 E52.51376
G1 X118.068 Y78.341 E53.32485
G1 X113.213 Y78.762 E54.13527
G1 X108.496 Y80.027 E54.94743
G1 X104.065 Y82.095 E55.76061
G1 X100.083 Y84.883 E56.56899
G1 X96.623 Y88.343 E57.38273
G1 X93.835 Y92.325 E58.19112
G1 X91.767 Y96.756 E59.0043
G1 X90.502 Y101.473 E59.81646
G1 X90.081 Y106.328 E60.62688
G1 X90.502 Y111.187 E61.43796
G1 X91.767 Y115.904 E62.25012
G1 X93.835 Y120.335 E63.0633
G1 X96.623 Y124.317 E63.87169
G1 X100.083 Y127.777 E64.68543
G1 X104.065 Y130.565 E65.49381
G1 X108.496 Y132.633 E66.30699
G1 X113.213 Y133.898 E67.11915
G1 X118.068 Y134.32 E67.92959
G1 X122.927 Y133.899 E68.74067
G1 X127.64 Y132.633 E69.55223
G1 X132.076 Y130.565 E70.36616
G1 X136.057 Y127.777 E71.17441
G1 X139.517 Y124.317 E71.98815
G1 X142.305 Y120.335 E72.79654
G1 X144.373 Y115.905 E73.60957
G1 X145.634 Y111.187 E74.42172
G1 X146.059 Y106.328 E75.23286
G1 X145.635 Y101.473 E76.04332
G1 X144.373 Y96.755 E76.85551
G1 X142.305 Y92.325 E77.66854
G1 X139.517 Y88.343 E78.47693
G0 F3600 X135.824 Y85.16
G0 X132.641 Y82.932
G0 X127.747 Y79.742
G0 X127.915 Y79.273
G1 F1200 X123.066 Y77.971 E79.31188
G1 X118.068 Y77.537 E80.14618
G1 X113.073 Y77.971 E80.97998
G1 X108.221 Y79.273 E81.81542
G1 X103.663 Y81.4 E82.65189
G1 X99.567 Y84.267 E83.48334
G1 X96.007 Y87.827 E84.3206
G1 X93.14 Y91.923 E85.15205
G1 X91.013 Y96.481 E85.98852
G1 X89.711 Y101.333 E86.82396
G1 X89.277 Y106.328 E87.65776
G1 X89.711 Y111.327 E88.49222
G1 X91.013 Y116.179 E89.32766
G1 X93.14 Y120.737 E90.16413
G1 X96.007 Y124.833 E90.99558
G1 X99.567 Y128.393 E91.83284
G1 X103.663 Y131.26 E92.66429
G1 X108.221 Y133.387 E93.50076
G1 X113.073 Y134.689 E94.3362
G1 X118.068 Y135.123 E95.17
G1 X123.066 Y134.689 E96.0043
G1 X127.915 Y133.388 E96.83921
G1 X132.477 Y131.26 E97.67635
G1 X136.573 Y128.393 E98.5078
G1 X140.133 Y124.833 E99.34506
G1 X143 Y120.737 E100.17651
G1 X145.127 Y116.18 E101.01283
G1 X146.425 Y111.327 E101.84826
G1 X146.863 Y106.328 E102.68278
G1 X146.425 Y101.333 E103.51664
G1 X145.127 Y96.48 E104.35206
G1 X143 Y91.923 E105.18838
G1 X140.133 Y87.827 E106.01984
G1 X136.573 Y84.267 E106.85709
G1 X132.477 Y81.4 E107.68854
G1 X127.915 Y79.273 E108.52562
G0 F3600 X127.747 Y79.742
G0 X131.894 Y82.409
G0 X135.824 Y85.16
G0 X138.591 Y87.927
G0 X142.575 Y92.182
G0 X143.696 Y91.521
;TYPE:WALL-OUTER
G1 F1200 X140.748 Y87.311 E109.42306
G1 X137.089 Y83.652 E110.32663
G1 X132.879 Y80.704 E111.22407
G1 X128.19 Y78.518 E112.12745
G1 X123.206 Y77.18 E113.02855
G1 X118.068 Y76.734 E113.9291
G1 X112.934 Y77.18 E114.82895
G1 X107.946 Y78.518 E115.73073
G1 X103.261 Y80.704 E116.63347
G1 X99.051 Y83.652 E117.53091
G1 X95.392 Y87.311 E118.43448
G1 X92.444 Y91.521 E119.33193
G1 X90.258 Y96.206 E120.23467
G1 X88.92 Y101.194 E121.13644
G1 X88.474 Y106.328 E122.0363
G1 X88.92 Y111.466 E122.93685
G1 X90.258 Y116.454 E123.83862
G1 X92.444 Y121.139 E124.74137
G1 X95.392 Y125.349 E125.63881
G1 X99.051 Y129.008 E126.54238
G1 X103.261 Y131.956 E127.43982
G1 X107.946 Y134.142 E128.34257
G1 X112.934 Y135.48 E129.24434
G1 X118.068 Y135.926 E130.14419
G1 X123.206 Y135.48 E131.04474
G1 X128.19 Y134.142 E131.94584
G1 X132.879 Y131.956 E132.84922
G1 X137.089 Y129.008 E133.74666
G1 X140.748 Y125.349 E134.65023
G1 X143.696 Y121.139 E135.54768
G1 X145.882 Y116.454 E136.45042
G1 X147.216 Y111.466 E137.35201
G1 X147.666 Y106.328 E138.25262
G1 X147.216 Y101.194 E139.15254
G1 X145.882 Y96.206 E140.05413
G1 X143.696 Y91.521 E140.95688
G1 F2700 E136.95688
G0 F3600 X142.575 Y92.182
G0 X143.995 Y96.892
G0 X142.108 Y102.306
G0 X141.427 Y110.331
G0 X140.13 Y110.218
G1 F2700 E140.95688
G1 F1200 X139.122 Y113.994 E141.63932
G1 X137.47 Y117.53 E142.32082
G1 X135.231 Y120.725 E143.00207
G1 X132.465 Y123.491 E143.68512
G1 X129.27 Y125.73 E144.36637
G1 X125.733 Y127.381 E145.04795
G1 X121.992 Y128.383 E145.72422
G1 X118.103 Y128.727 E146.40595
G1 X114.182 Y128.39 E147.09314
G1 X110.406 Y127.382 E147.77558
G1 X106.87 Y125.73 E148.45708
G1 X103.675 Y123.491 E149.13833
G1 X100.909 Y120.725 E149.82138
G1 X98.67 Y117.53 E150.50263
G1 X97.018 Y113.994 E151.18413
G1 X96.005 Y110.184 E151.87253
G1 X95.666 Y106.328 E152.54845
G1 X96.017 Y102.408 E153.23568
G1 X97.018 Y98.666 E153.91207
G1 X98.67 Y95.13 E154.59357
G1 X100.909 Y91.935 E155.27482
G1 X103.675 Y89.169 E155.95787
G1 X106.87 Y86.93 E156.63912
G1 X110.406 Y85.278 E157.32062
G1 X114.216 Y84.265 E158.00902
G1 X118.068 Y83.926 E158.68424
G1 X121.992 Y84.277 E159.37217
G1 X125.733 Y85.279 E160.04843
G1 X129.27 Y86.93 E160.73002
G1 X132.465 Y89.169 E161.41127
G1 X135.231 Y91.935 E162.09431
G1 X137.47 Y95.13 E162.77556
G1 X139.122 Y98.666 E163.45707
G1 X140.123 Y102.408 E164.13345
G1 X140.467 Y106.293 E164.81449
G1 X140.13 Y110.218 E165.50238
G1 F2700 E161.50238
G0 F3600 X141.427 Y110.331
G0 X140.29 Y114.418
G0 X138.549 Y118.153
G0 X136.184 Y121.531
G0 X133.269 Y124.444
G0 X129.894 Y126.809
G0 X126.158 Y128.551
G0 X122.176 Y129.618
G0 X118.071 Y129.977
G0 X113.966 Y129.618
G0 X109.985 Y128.551
G0 X106.248 Y126.809
G0 X102.873 Y124.444
G0 X99.958 Y121.53
G0 X97.594 Y118.154
G0 X94.147 Y110.616
G0 X93.737 Y110.72
;TYPE:SKIN
G1 F2700 E165.50238
G1 F1200 X94.761 Y114.54 E166.19296
G1 X94.869 Y114.882 E166.25558
G1 X96.541 Y118.466 E166.94616
G1 X96.681 Y118.734 E166.99896
G1 X98.992 Y122.034 E167.70244
G1 X99.256 Y122.353 E167.77474
G1 X102.004 Y125.107 E168.45408
G1 X102.258 Y125.336 E168.5138
G1 X105.66 Y127.712 E169.23838
G1 X105.901 Y127.839 E169.28595
G1 X109.378 Y129.463 E169.95605
G1 X109.716 Y129.599 E170.01967
G1 X113.544 Y130.623 E170.7116
G1 X113.824 Y130.688 E170.76179
G1 X117.825 Y131.035 E171.46305
G1 X118.311 Y131.035 E171.54792
G1 X122.111 Y130.707 E172.21392
G1 X122.568 Y130.626 E172.29497
G1 X126.3 Y129.631 E172.96939
G1 X126.622 Y129.527 E173.02848
G1 X130.217 Y127.851 E173.72109
G1 X130.506 Y127.696 E173.77836
G1 X133.774 Y125.404 E174.47536
G1 X134.093 Y125.14 E174.54766
G1 X136.847 Y122.392 E175.227
G1 X137.043 Y122.176 E175.27793
G1 X139.375 Y118.854 E175.98666
G1 X139.574 Y118.51 E176.05606
G1 X141.203 Y115.013 E176.72969
G1 X141.321 Y114.737 E176.78211
G1 X142.359 Y110.864 E177.48226
G1 X142.442 Y110.412 E177.56251
G1 X142.779 Y106.547 E178.23996
G1 X142.791 Y106.224 E178.2964
G1 X142.443 Y102.28 E178.98776
G1 X142.367 Y101.831 E179.06727
G1 X141.305 Y97.864 E179.78437
G1 X139.587 Y94.179 E180.49432
G1 X139.46 Y93.932 E180.54282
G1 X137.124 Y90.595 E181.25409
G1 X136.88 Y90.303 E181.32054
G1 X134.132 Y87.549 E181.99988
G1 X133.882 Y87.324 E182.05861
G1 X130.462 Y84.928 E182.78777
G1 X126.532 Y83.091 E183.54528
G1 X122.608 Y82.037 E184.25476
G1 X122.256 Y81.965 E184.3175
G1 X118.308 Y81.617 E185.00955
G1 X117.961 Y81.605 E185.07018
G1 X113.772 Y81.973 E185.80446
G1 X109.848 Y83.021 E186.51367
G1 X109.566 Y83.11 E186.56531
G1 X105.926 Y84.805 E187.26644
G1 X105.666 Y84.941 E187.31768
G1 X102.335 Y87.272 E188.02759
G1 X102.043 Y87.516 E188.09404
G1 X99.289 Y90.264 E188.77338
G1 X99.094 Y90.48 E188.8242
G1 X96.684 Y93.916 E189.55705
G1 X96.548 Y94.18 E189.6089
G1 X94.937 Y97.639 E190.27519
G1 X94.797 Y97.976 E190.33891
G1 X93.777 Y101.792 E191.02864
G1 X93.705 Y102.136 E191.09001
G1 X93.357 Y106.072 E191.77998
G1 X93.345 Y106.427 E191.842
G1 X93.693 Y110.399 E192.53823
G1 X93.737 Y110.72 E192.59481
G1 F2700 E188.59481
G0 F3600 X94.148 Y110.617
G0 X94.425 Y106.331
G0 X94.784 Y102.226
G0 X95.852 Y98.245
G0 X97.594 Y94.508
G0 X99.958 Y91.133
G0 X102.873 Y88.218
G0 X106.248 Y85.854
G0 X109.985 Y84.112
G0 X113.966 Y83.045
G0 X122.233 Y82.304
G0 X122.511 Y79.108
G0 X122.834 Y79.056
G0 X122.798 Y79.472
G1 F2700 E192.59481
G1 F1200 X127.394 Y80.71 E193.42595
G1 X131.719 Y82.724 E194.25903
G1 X135.586 Y85.428 E195.08297
G1 X138.968 Y88.811 E195.91826
G1 X141.672 Y92.673 E196.74149
G1 X143.69 Y97.002 E197.5755
G1 X144.92 Y101.598 E198.40627
G1 X145.334 Y106.328 E199.23536
G1 X144.92 Y111.058 E200.06445
G1 X143.69 Y115.654 E200.89523
G1 X141.672 Y119.983 E201.72924
G1 X138.968 Y123.845 E202.55247
G1 X135.585 Y127.228 E203.38788
G1 X131.723 Y129.932 E204.21111
G1 X127.39 Y131.95 E205.04575
G1 X122.798 Y133.184 E205.87603
G1 X118.068 Y133.594 E206.70506
G1 X113.338 Y133.184 E207.53409
G1 X108.747 Y131.951 E208.36416
G1 X104.413 Y129.932 E209.19903
G1 X100.55 Y127.228 E210.0224
G1 X97.168 Y123.845 E210.85769
G1 X94.464 Y119.983 E211.68092
G1 X92.445 Y115.65 E212.51563
G1 X91.212 Y111.058 E213.34587
G1 X90.806 Y106.328 E214.17484
G1 X91.212 Y101.598 E215.00381
G1 X92.446 Y97.006 E215.83409
G1 X94.464 Y92.673 E216.66873
G1 X97.168 Y88.81 E217.49211
G1 X100.551 Y85.428 E218.32739
G1 X104.413 Y82.724 E219.15062
G1 X108.746 Y80.706 E219.98526
G1 X113.338 Y79.472 E220.81555
G1 X118.069 Y79.062 E221.64475
G1 X122.798 Y79.472 E222.47361
G0 F3600 X122.834 Y79.056
G0 X127.516 Y80.368
G0 X131.456 Y82.205
G0 X132.662 Y82.873
G0 X132.192 Y83.543
G1 F1200 X140.858 Y92.21 E224.61375
G1 F2700 E220.61375
G0 F3600 X141.529 Y91.741
G0 X141.092 Y91.288
G0 X138.495 Y93.106
G0 X139.082 Y92.696
G1 F2700 E224.61375
G1 F1200 X143.128 Y96.741 E225.61276
G1 F2700 E221.61276
G0 F3600 X143.873 Y96.395
G0 X140.867 Y97.725
G0 X141.537 Y97.414
G1 F2700 E225.61276
G1 F1200 X144.062 Y99.939 E226.23629
G0 F3600 X144.857 Y99.728
G0 X145.27 Y101.272
G0 X144.475 Y101.483
G1 F1200 X142.037 Y99.044 E226.83846
G0 F3600 X141.246 Y99.254
G0 X141.66 Y100.799
G0 X142.45 Y100.589
G1 F1200 X144.62 Y102.76 E227.37445
G0 F3600 X145.44 Y102.689
G0 X145.548 Y103.929
G0 X144.729 Y104
G1 F1200 X142.814 Y102.084 E227.84748
G0 F3600 X142.012 Y102.223
G0 X142.123 Y103.408
G0 X142.936 Y103.338
G1 F1200 X144.837 Y105.239 E228.31692
G0 F3600 X145.657 Y105.168
G0 X145.74 Y106.526
G0 X144.922 Y106.455
G1 F1200 X143.043 Y104.577 E228.7808
G0 F3600 X142.231 Y104.647
G0 X142.339 Y105.886
G0 X143.151 Y105.816
G1 F1200 X144.83 Y107.495 E229.19542
G0 F3600 X145.649 Y107.567
G0 X145.558 Y108.607
G0 X144.739 Y108.535
G1 F1200 X143.146 Y106.942 E229.5888
G0 F3600 X142.332 Y106.871
G0 X142.241 Y107.913
G0 X143.056 Y107.984
G1 F1200 X144.648 Y109.575 E229.98181
G0 F3600 X145.467 Y109.647
G0 X145.376 Y110.688
G0 X144.557 Y110.616
G1 F1200 X142.966 Y109.025 E230.3747
G0 F3600 X142.151 Y108.954
G0 X142.061 Y109.995
G0 X142.876 Y110.066
G1 F1200 X144.371 Y111.562 E230.744
G0 F3600 X144.132 Y112.454
G1 F1200 X142.722 Y111.043 E231.09232
G0 F3600 X142.484 Y111.937
G1 F1200 X143.893 Y113.346 E231.44026
G0 F3600 X143.655 Y114.239
G1 F1200 X142.246 Y112.83 E231.78821
G0 F3600 X142.008 Y113.724
G1 F1200 X143.416 Y115.132 E232.1359
G0 F3600 X143.109 Y115.956
G1 F1200 X141.77 Y114.617 E232.46656
G0 F3600 X141.45 Y115.429
G1 F1200 X142.749 Y116.727 E232.78722
G0 F3600 X142.389 Y117.499
G1 F1200 X141.09 Y116.2 E233.108
G0 F3600 X140.731 Y116.972
G1 F1200 X142.029 Y118.271 E233.42865
G0 F3600 X141.67 Y119.042
G1 F1200 X140.371 Y117.743 E233.74943
G0 F3600 X140.011 Y118.515
G1 F1200 X141.305 Y119.809 E234.06898
G0 F3600 X140.839 Y120.475
G1 F1200 X139.596 Y119.232 E234.37593
G0 F3600 X139.13 Y119.896
G1 F1200 X140.373 Y121.14 E234.68301
G0 F3600 X139.908 Y121.806
G1 F1200 X138.662 Y120.56 E234.9907
G0 F3600 X138.196 Y121.225
G1 F1200 X139.442 Y122.472 E235.29851
G0 F3600 X138.976 Y123.137
G1 F1200 X137.729 Y121.89 E235.60645
G0 F3600 X137.25 Y122.542
G1 F1200 X138.478 Y123.77 E235.9097
G0 F3600 X137.912 Y124.336
G1 F1200 X136.691 Y123.114 E236.21134
G0 F3600 X136.124 Y123.679
G1 F1200 X137.346 Y124.901 E236.51311
G0 F3600 X136.781 Y125.467
G1 F1200 X135.559 Y124.245 E236.81487
G0 F3600 X134.992 Y124.81
G1 F1200 X136.215 Y126.033 E237.11689
G0 F3600 X135.649 Y126.598
G1 F1200 X134.427 Y125.376 E237.41865
G0 F3600 X133.797 Y125.878
G1 F1200 X135.04 Y127.121 E237.7256
G0 F3600 X134.375 Y127.587
G1 F1200 X133.131 Y126.343 E238.0328
G0 F3600 X132.466 Y126.809
G1 F1200 X133.709 Y128.052 E238.33975
G0 F3600 X133.044 Y128.518
G1 F1200 X131.8 Y127.274 E238.64695
G0 F3600 X131.134 Y127.74
G1 F1200 X132.378 Y128.984 E238.95415
G0 F3600 X131.713 Y129.45
